svgs/regular/image-polaroid-user.svg

<svg xmlns="http://www.w3.org/2000/svg" viewBox="0 0 448 512"><!--! Font Awesome Pro 6.6.0 by @fontawesome - https://fontawesome.com License - https://fontawesome.com/license (Commercial License) Copyright 2024 Fonticons, Inc. --><path d="M48 416c0 8.8 7.2 16 16 16l320 0c8.8 0 16-7.2 16-16l0-48L48 368l0 48zm286-96l66 0 0-224c0-8.8-7.2-16-16-16L64 80c-8.8 0-16 7.2-16 16l0 224 66 0c7.1-27.6 32.2-48 62-48l96 0c29.8 0 54.9 20.4 62 48zM448 96l0 224 0 24 0 24 0 48c0 35.3-28.7 64-64 64L64 480c-35.3 0-64-28.7-64-64l0-48 0-24 0-24L0 96C0 60.7 28.7 32 64 32l320 0c35.3 0 64 28.7 64 64zM160 176a64 64 0 1 1 128 0 64 64 0 1 1 -128 0z"/></svg>

<svg xmlns="http://www.w3.org/2000/svg" viewBox="0 0 448 512"><!--! Font Awesome Pro 6.5.2 by @fontawesome - https://fontawesome.com License - https://fontawesome.com/license (Commercial License) Copyright 2024 Fonticons, Inc. --><path d="M48 416c0 8.8 7.2 16 16 16H384c8.8 0 16-7.2 16-16V368H48v48zm286-96h66V96c0-8.8-7.2-16-16-16H64c-8.8 0-16 7.2-16 16V320h66c7.1-27.6 32.2-48 62-48h96c29.8 0 54.9 20.4 62 48zM448 96V320v24 24 48c0 35.3-28.7 64-64 64H64c-35.3 0-64-28.7-64-64V368 344 320 96C0 60.7 28.7 32 64 32H384c35.3 0 64 28.7 64 64zM160 176a64 64 0 1 1 128 0 64 64 0 1 1 -128 0z"/></svg>
